X:1
T:La Donna è Mobile
T:La Donna è Mobile
T:Giuseppe Verdi
T:Vincent
C:Vincent
%%score { ( 1 3 ) | 2 }
L:1/8
Q:1/8=138
M:3/8
K:Bb
V:1 treble nm="Piano" snm="Pno."
V:3 treble 
V:2 bass 
V:1
"^Allegretto"!p! z3 |!f! !>![dd']!>![dd']!>![dd'] | (!>![ff']/>[ee']/ [cc']2) | %3
 !>![cc']!>![cc']!>![cc'] | (!>![ee']/>[dd']/) [Bb]2 |!p! ([dd'][cc'][Bb]) | %6
{/[cc']} ([Bb]/>[Aa]/) [Aa]2 | ([cc'][Bb][Gg]) | !fermata!z3 |!pp! z3 |"_con brio" .d.d.d | %11
 !>!f/>e/ c2 | .c.c.c | !>!e/>d/ B2 |"_legato" (dcB) |{/c} B/>A/ A2 | (cBG) |{/A} G/>F/ F2 | %18
 !>!d!>!d!>!d | !>!f/>e/ c2 | !>!c!>!c!>!c | !>!e/>d/ B2 |!pp! .d.c.B |{/c} B/>A/ A2 | .c.B.G | %25
{/A} G/>F/ F2 |!p! (c/>d/).c.c |{/=e} [FAf]/ z/ !>![FAc]2 | (d/>e/).d.d | %29
{/^f} [GBg]/ z/ !>![GBd]2 |!<(! (f/>g/).f.f!<)! |!f! (!>![Bg]2 f) | %32
!pp! (3([Gce]/"_leggiero"f/e/) .[FBd]/ z/ .[EAc]/ z/ | B2 (f/>f'/) | f'2 (f/>f'/) | f'2 (f/>f'/) | %36
 (3.[c'e']/.[d'f']/.[c'e']/ [bd']/ z/ [eac']/ z/ | [db] z!<(! (f/>f'/) | %38
 (3([c'e']/[ac']/).f'/ [c'e']/ z/ (f/>f'/) | (3([bd']/[fb]/).f'/ [bd']/ z/ (f/>f'/) | %40
 (3.[c'e']/.[ac']/.f'/(3.[c'e']/.[ac']/.f'/(3.[c'e']/.[ac']/.f'/!<)! |!f! [Bfb]z!fermata!^f | %42
"_con forza" (!>![cea]/>g/)(f/>e/)([EAd]/>c/) | [B,DFB]/ z/ !>![Bdfb] z |] %44
V:2
 [B,,B,][F,B,D][F,B,D] | [B,,B,][F,B,D][F,B,D] | [F,,F,][F,A,E][F,A,E] | [F,,F,][F,A,E][F,A,E] | %4
 [F,,F,][F,B,D][F,B,D] | [F,,F,][F,B,D][F,B,D] | [F,,F,][F,CE][F,CE] | [F,,F,][F,A,E][F,A,E] | %8
 !fermata!z3 | B,,[B,DF][B,DF] | B,,[B,DF][B,DF] | F,,[F,A,C][F,A,C] | F,,[F,A,C][F,A,C] | %13
 F,,[B,DF][B,DF] | F,,[B,DF][B,DF] | F,,[F,A,C][F,A,C] | F,,[F,A,E][F,A,E] | F,,[F,B,D][F,B,D] | %18
 B,,[B,DF][B,DF] | F,,[F,A,C][F,A,C] | F,,[F,A,C][F,A,C] | F,,[B,DF][B,DF] | F,,[B,DF][B,DF] | %23
 F,,[F,A,C][F,A,C] | F,,[F,A,E][F,A,E] | B,,[F,B,D][F,B,D] | [=E,,=E,][E,G,B,C][E,G,B,C] | %27
 [F,,F,][F,A,C][F,A,C] | [^F,,^F,][F,A,CD][F,A,CD] | [G,,G,][G,B,D][G,B,D] | %30
 [A,,A,][A,CEF][A,CEF] | !>![B,D]2 z | E,/ z/ F,/ z/ F,,/ z/ | [B,,B,][B,,B,] z | %34
 [F,A,C][F,A,C] z | [B,D][B,D] z | [E,G,C]/ z/ [F,B,D]/ z/ [F,,F,]/ z/ | [B,,F,][F,B,D][F,B,D] | %38
 [F,,F,][F,A,C][F,A,C] | [F,,F,][F,B,D][F,B,D] | [F,,F,][F,A,C][F,A,C] | [D,,D,] z !fermata!z | %42
 !>![E,,E,]/ z/ z [F,,F,]/ z/ | [B,,,B,,]/ z/ !>![B,,,D,,F,,B,,] z |] %44
V:3
 x3 | x3 | x3 | x3 | x3 | x3 | x3 | x3 | x3 | x3 | x3 | x3 | x3 | x3 | x3 | x3 | x3 | x3 | x3 | %19
 x3 | x3 | x3 | x3 | x3 | x3 | x3 | x3 | x3 | x3 | x3 | x3 | x3 | x3 | [DF][DF] x | x3 | x3 | x3 | %37
 x3 | x3 | x3 | x3 | x3 | x3 | x3 |] %44

